!!!COM: Music21
!!!OTL: Aire de Valse
!!!OMV: pezas_valses_aire-de-valse_aire-de-valse-partitura.musicxml
**kern
*part1
*staff1
*I"Bagpipes
*I'Bag
*clefG^2
*k[]
*M3/4
=1
!LO:TX:a:t=Presto
*MM184
!LO:TX:a:t=[quarter]=184
2r
4gg
=||
4ccc
4gg
4ee
=
4cc
4dd
4cc
=
[2aa
8aaL]
8aa-XJ
=
2gg
4gg
=
4ccc
4gg
4ee
=
4cc
4dd
4b
=
2dd
8eeL
8ddJ
=
2cc
4gg
=
4ccc
4gg
4ee
=
4cc
4dd
4cc
!!linebreak:original
=
[2aa
8aaL]
8aa-XJ
=
2gg
4gg
!!linebreak:original
=
4ccc
4gg
4ee
=
4cc
4dd
4b
=
[2.cc
=
2cc]
4gg
=||
4ccc
4gg
4ee
=
4cc
4dd
4cc
=
[2aa
8aaL]
8aa-XJ
=
2gg
4gg
=
4ccc
4gg
4ee
=
4cc
4dd
4b
=
2dd
8eeL
8ddJ
=
2cc
4gg
!!linebreak:original
=
4ccc
4gg
4ee
=
4cc
4dd
4cc
=
[2aa
8aaL]
8aa-XJ
=
2gg
4gg
!!linebreak:original
=
4ccc
4gg
4ee
=
4cc
4dd
4b
=
[2.cc
=
4cc]
4bb
4bb
=||
4bb
8aaL
8ggJ
[4ff
=
4ff]
4aa
4aa
=
4aa
8ggL
8ffJ
[4ee
=
4ee]
4gg
4gg
=
4gg
8ffL
8eeJ
8ddL
8eeJ
=
4ff
8ggL
8ffJ
8eeL
8ffJ
!!linebreak:original
=
[2.gg
=
4gg]
4bb
4bb
=
4bb
8aaL
8ggJ
[4ff
=
4ff]
4aa
4aa
=
4aa
8ggL
8ffJ
[4ee
=
4ee]
4gg
4gg
=
4gg
8ffL
8eeJ
8ddL
8eeJ
=
4ff
8ggL
8ffJ
8eeL
8ddJ
=
[2.ee
=
4ee]
4bb
4bb
=||
4bb
8aaL
8ggJ
[4ff
!!pagebreak:original
=
4ff]
4aa
4aa
=
4aa
8ggL
8ffJ
[4ee
=
4ee]
4gg
4gg
=
4gg
8ffL
8eeJ
8ddL
8eeJ
=
4ff
8ggL
8ffJ
8eeL
8ffJ
!!linebreak:original
=
[2.gg
=
4gg]
4bb
4bb
=
4bb
8aaL
8ggJ
[4ff
=
4ff]
4aa
4aa
=
4aa
8ggL
8ffJ
[4ee
=
4ee]
4gg
4gg
=
4gg
8ffL
8eeJ
8ddL
8eeJ
=
4ff
8ggL
8ffJ
8eeL
8ddJ
=||
[2.ee
!!linebreak:original
=
2ee]
4gg
=||
4cc
4ee
4gg
=
8ccc
8r
4r
4r
==
*-
!!!system-decoration: s1,s2
